Numix-GalliumOS/24/actions/edit-table-cell-merge.svg

<svg xmlns="http://www.w3.org/2000/svg" viewBox="0 0 24 24">
 <rect width="4" height="14" x="10" y="-19" transform="matrix(0,1,-1,0,0,0)" style="fill:#268bd2;opacity:0.2;fill-opacity:1;stroke:none;fill-rule:nonzero"/>
 <path d="m 4 4 c 0 5.333 0 10.667 0 16 5.333 0 10.667 0 16 0 c 0 -5.333 0 -10.667 0 -16 -5.333 0 -10.667 0 -16 0 m 1 1 4 0 0 4 -4 0 m 5 -4 4 0 0 4 -4 0 z m 5 0 4 0 0 4 -4 0 z m -10 5 c 4.667 0 9.333 0 14 0 l 0 4 c -4.667 0 -9.333 0 -14 0 z m 0 5 4 0 0 4 -4 0 z m 5 0 4 0 0 4 -4 0 z m 5 0 4 0 0 4 -4 0 z" style="fill:#888;opacity:1;fill-opacity:1;stroke:none;fill-rule:nonzero"/>
 <path d="m 9 10 0 4 -2.5 -2" style="fill:#268bd2;opacity:1;fill-opacity:1;stroke:none"/>
 <path d="m 15 10 0 4 2.5 -2 z" style="fill:#268bd2;opacity:1;fill-opacity:1;stroke:none"/>
</svg>

<?xml version="1.0" encoding="UTF-8" standalone="no"?>
<svg
   xmlns:dc="http://purl.org/dc/elements/1.1/"
   xmlns:cc="http://creativecommons.org/ns#"
   xmlns:rdf="http://www.w3.org/1999/02/22-rdf-syntax-ns#"
   xmlns:svg="http://www.w3.org/2000/svg"
   xmlns="http://www.w3.org/2000/svg"
   xmlns:sodipodi="http://sodipodi.sourceforge.net/DTD/sodipodi-0.dtd"
   xmlns:inkscape="http://www.inkscape.org/namespaces/inkscape"
   viewBox="0 0 24 24"
   id="svg2"
   version="1.1"
   inkscape:version="0.91 r13725"
   sodipodi:docname="edit-table-cell-merge.svg"
   width="24"
   height="24">
  <metadata
     id="metadata98">
    <rdf:RDF>
      <cc:Work
         rdf:about="">
        <dc:format>image/svg+xml</dc:format>
        <dc:type
           rdf:resource="http://purl.org/dc/dcmitype/StillImage" />
        <dc:title></dc:title>
      </cc:Work>
    </rdf:RDF>
  </metadata>
  <sodipodi:namedview
     pagecolor="#ffffff"
     bordercolor="#666666"
     borderopacity="1"
     objecttolerance="10"
     gridtolerance="10"
     guidetolerance="10"
     inkscape:pageopacity="0"
     inkscape:pageshadow="2"
     inkscape:window-width="1366"
     inkscape:window-height="704"
     id="namedview96"
     showgrid="true"
     inkscape:zoom="19.666668"
     inkscape:cx="3.5429732"
     inkscape:cy="13.268858"
     inkscape:window-x="0"
     inkscape:window-y="27"
     inkscape:window-maximized="1"
     inkscape:current-layer="svg2">
    <inkscape:grid
       type="xygrid"
       id="grid4360" />
  </sodipodi:namedview>
  <defs
     id="defs4">
    <path
       id="SVGCleanerId_0"
       d="m 14,12 20,0 c 1.105,0 2,0.895 2,2 l 0,20 c 0,1.105 -0.895,2 -2,2 l -20,0 c -1.105,0 -2,-0.895 -2,-2 l 0,-20 c 0,-1.105 0.895,-2 2,-2 m 0,0"
       inkscape:connector-curvature="0" />
  </defs>
  <rect
     style="opacity:0.2;fill:#268bd2;fill-opacity:1;fill-rule:nonzero;stroke:none;stroke-width:1;stroke-linejoin:round;stroke-miterlimit:4;stroke-dasharray:none;stroke-opacity:1"
     id="rect4177"
     width="4"
     height="14"
     x="10"
     y="-19"
     transform="matrix(0,1,-1,0,0,0)" />
  <path
     style="opacity:1;fill:#888888;fill-opacity:1;fill-rule:nonzero;stroke:none;stroke-width:1;stroke-linejoin:round;stroke-miterlimit:4;stroke-dasharray:none;stroke-opacity:1"
     d="m 4,4 c 0,5.3333333 0,10.666667 0,16 5.333333,0 10.666667,0 16,0 C 20,14.666667 20,9.3333333 20,4 14.666667,4 9.333333,4 4,4 Z M 5,5 9,5 9,9 5,9 Z m 5,0 4,0 0,4 -4,0 z m 5,0 4,0 0,4 -4,0 z M 5,10 c 4.666667,0 9.333333,0 14,0 l 0,4 c -4.666667,0 -9.333333,0 -14,0 z m 0,5 4,0 0,4 -4,0 z m 5,0 4,0 0,4 -4,0 z m 5,0 4,0 0,4 -4,0 z"
     id="rect4141"
     inkscape:connector-curvature="0"
     sodipodi:nodetypes="cccccccccccccccccccccccccccccccccccccccc" />
  <path
     style="opacity:1;fill:#268bd2;fill-opacity:1;stroke:none;stroke-width:4;stroke-linecap:round;stroke-linejoin:round;stroke-miterlimit:4;stroke-dasharray:none;stroke-opacity:1"
     d="M 9,10 9,14 6.5,12 Z"
     id="rect4178"
     inkscape:connector-curvature="0"
     sodipodi:nodetypes="cccc" />
  <path
     sodipodi:nodetypes="cccc"
     inkscape:connector-curvature="0"
     id="path4145"
     d="m 15,10 0,4 2.5,-2 z"
     style="opacity:1;fill:#268bd2;fill-opacity:1;stroke:none;stroke-width:4;stroke-linecap:round;stroke-linejoin:round;stroke-miterlimit:4;stroke-dasharray:none;stroke-opacity:1" />
</svg>
